.wordpress-org/icon.svg

<svg fill="none" height="196" viewBox="0 0 225 196" width="225" xmlns="http://www.w3.org/2000/svg"><g fill="#000"><path d="m125.834 0c-53.624 0-97.2281 41.7025-98.3899 88.8196h-24.52673c-2.470546 0-3.818555 2.8708-2.234421 4.7586l33.233151 39.6028c1.7854 2.127 5.0875 2.071 6.798-.117l30.9344-39.5638c1.4889-1.9043.1261-4.6806-2.2976-4.6806h-25.7463c1.1589-38.2304 37.5301-72.7279 82.2294-72.7279 44.699 0 82.258 36.6717 82.258 81.9083 0 45.237-36.829 81.908-82.258 81.908-19.689 0-37.7587-6.89-51.9195-18.377-3.4365-2.788-8.4792-2.81-11.6148.313-3.1754 3.161-3.1841 8.334.2524 11.21 17.1098 14.319 39.1819 22.946 63.2819 22.946 54.354 0 98.418-43.877 98.418-98 0-54.1233-44.064-98-98.418-98z"/><path clip-rule="evenodd" d="m113.009 57.1044c0-4.2321 3.431-7.6629 7.663-7.6629s7.663 3.4308 7.663 7.6629v46.3156l34.611 21.078c3.608 2.197 4.713 6.925 2.453 10.494-2.205 3.48-6.792 4.552-10.311 2.409l-42.079-25.626z" fill-rule="evenodd"/></g></svg>

<svg width="225" height="196" viewBox="0 0 225 196" fill="none" xmlns="http://www.w3.org/2000/svg">
<path d="M125.834 0C72.21 0 28.6059 41.7025 27.4441 88.8196H2.91737C0.446824 88.8196 -0.901185 91.6904 0.682949 93.5782L33.9161 133.181C35.7015 135.308 39.0036 135.252 40.7141 133.064L71.6485 93.5002C73.1374 91.5959 71.7746 88.8196 69.3509 88.8196H43.6046C44.7635 50.5892 81.1347 16.0917 125.834 16.0917C170.533 16.0917 208.092 52.7634 208.092 98C208.092 143.237 171.263 179.908 125.834 179.908C106.145 179.908 88.0753 173.018 73.9145 161.531C70.478 158.743 65.4353 158.721 62.2997 161.844C59.1243 165.005 59.1156 170.178 62.5521 173.054C79.6619 187.373 101.734 196 125.834 196C180.188 196 224.252 152.123 224.252 98C224.252 43.8767 180.188 0 125.834 0Z" fill="black"/>
<path fill-rule="evenodd" clip-rule="evenodd" d="M113.009 57.1044C113.009 52.8723 116.44 49.4415 120.672 49.4415C124.904 49.4415 128.335 52.8723 128.335 57.1044V103.42L162.946 124.498C166.554 126.695 167.659 131.423 165.399 134.992C163.194 138.472 158.607 139.544 155.088 137.401L113.009 111.775V57.1044Z" fill="black"/>
</svg>
